outputs/icons/enterprise/barcode_qr_code_round.svg

<svg xmlns="http://www.w3.org/2000/svg" width="1200" height="1200" fill="none"><path fill="#000" d="M100 100h150v450H100zM100 650v-50h300v50zM500 600h-50v50h50zM250 850h100v100H250z"/><path fill="#000" fill-rule="evenodd" d="M500.31 1100H100.313V700H500.31zm-49.997-350h-300v300h300z"/><path fill="#000" d="M950 700v50h50v50h50v-50h-50v-50z"/><path fill="#000" fill-rule="evenodd" d="M950 700h-50v-50h-50v-50H650v50h-50v-50h-50v100h100v150h-50v-50h-50v50h50v50h-50v200h250v-50H700v-50h100v-50h50v150h100v-50h50v-50h50v100h50V950h-50v-50h-50v-50h100V600h-50v50h-50v-50h-50zm-50 100h-50v50h-50v100H700v50H600V900h150V800h50v-50h-50l1.19-97.815L850 650v100h100v50h50v50h-50v50H850v-50h50zm100 200v-50h-50v50z"/><path fill="#000" d="M400 100H300v450h100zM550 100h100v450H550zM500 100h-50v450h50zM700 100h102.375v450H700zM900 100h-50v450h50zM950 100h150v450H950z"/></svg>

<svg width="1200" height="1200" viewBox="0 0 1200 1200" fill="none" xmlns="http://www.w3.org/2000/svg"><path d="M100 100H250V550H100V100Z" fill="black"/><path d="M100 650V600H400V650H100Z" fill="black"/><path d="M500 600H450V650H500V600Z" fill="black"/><path d="M250 850H350V950H250V850Z" fill="black"/><path fill-rule="evenodd" d="M500.31 1100H100.313V700H500.31V1100ZM450.313 750H150.313V1050H450.313V750Z" fill="black"/><path d="M950 700V750H1000V800H1050V750H1000V700H950Z" fill="black"/><path fill-rule="evenodd" d="M950 700H900V650H850V600H650V650H600V600H550V700H650V850H600V800H550V850H600V900H550V1100H800V1050H700V1000H800V950H850V1100H950V1050H1000V1000H1050V1100H1100V950H1050V900H1000V850H1100V600H1050V650H1000V600H950V700ZM900 800H850V850H800V950H700V1000H600V900H750V800H800V750H750L751.19 652.185L850 650V750H950V800H1000V850H950V900H850V850H900V800ZM1000 1000V950H950V1000H1000Z" fill="black"/><path d="M400 100H300V550H400V100Z" fill="black"/><path d="M550 100H650V550H550V100Z" fill="black"/><path d="M500 100H450V550H500V100Z" fill="black"/><path d="M700 100H802.375V550H700V100Z" fill="black"/><path d="M900 100H850V550H900V100Z" fill="black"/><path d="M950 100H1100V550H950V100Z" fill="black"/></svg>
